X:310
T: Landsknecht als Schlemmer
N: A0359
O: Europa, Mitteleuropa, Deutschland
N: Forster II. 1540 No. 17.
R: Romanze, Ballade, Lied
M: 4/4
L: 1/8
K: G
G2 | _B2B2c2c2 | d2d2d2=f2- | f2ede2e2 | d4z2
_B2 | A2_B2A2A2 | G6g2 | g2=f2e2e2 | d4z2
d2 | g4g4 | =f4d4 | =f4_e4 | d4z2
=f2 | d2d2d2_B2 | d2d2d2G2 | c2_B2A2A2 | G4z2
G2 | _B2B2c2c2 | d2d2d2=f2- | f2ede2e2 | d4z2
_B2 | A2_B2A2A2 | G6g2 | g2=f2e2e2 | d4z2
d2 | g4g4 | =f4d4 | =f4_e4 | d4z2
=f2 | d2d2d2_B2 | d2d2d2G2 | c2_B2A2A2 | G4z4 |
g4g2g2 | =f4_e4 | d2d2d4 | c2c2c4 | _B4B4 |
=f2f2f4 | d4d2d2 | c2c2c4 |
_B2B2B2B2 | c2_B2A2A2 | G4_B4 |
c3cG2A2 | _B3cd3_e | =f6_e2 | d2c2_B2A2 | G6

@@@ Tune index: 310
